icon-themes/sifr_svg/cmd/lc_tablenumberformatdialog.svg

<svg viewBox="0 0 24 24" xmlns="http://www.w3.org/2000/svg"><path d="m12 2a10 10 0 0 0 -10 10 10 10 0 0 0 10 10v-2a8 8 0 0 1 -8-8 8 8 0 0 1 8-8 8 8 0 0 1 8 8 8 8 0 0 1 -.59375 3h-3.40625v-5c0-1.6568545-1.3-3-3-3h-4v2h4c.552285 0 1 .447715 1 1v1h-4c-1.6568542 0-3 1.343146-3 3 0 1.7 1.3431458 3 3 3h6 2.236328 1.763672.644531a10 10 0 0 0 1.355469-5 10 10 0 0 0 -10-10zm-2 11h4v2h-4c-.5522847 0-1-.447715-1-1s.4477153-1 1-1z" fill="#555753"/></svg>

<svg xmlns="http://www.w3.org/2000/svg" viewBox="0 0 24 24">
  <path
     style="fill:#555753"
     d="M 12 2 A 10 10 0 0 0 2 12 A 10 10 0 0 0 12 22 L 12 20 A 8 8 0 0 1 4 12 A 8 8 0 0 1 12 4 A 8 8 0 0 1 20 12 A 8 8 0 0 1 19.40625 15 L 16 15 L 16 10 C 16 8.3431455 14.7 7 13 7 L 9 7 L 9 9 L 13 9 C 13.552285 9 14 9.447715 14 10 L 14 11 L 10 11 C 8.3431458 11 7 12.343146 7 14 C 7 15.7 8.3431458 17 10 17 L 16 17 L 18.236328 17 L 20 17 L 20.644531 17 A 10 10 0 0 0 22 12 A 10 10 0 0 0 12 2 z M 10 13 L 14 13 L 14 15 L 10 15 C 9.4477153 15 9 14.552285 9 14 C 9 13.447715 9.4477153 13 10 13 z "
     />
</svg>
